img/svg/car.svg

<svg xmlns="http://www.w3.org/2000/svg" data-name="Layer 1" viewBox="0 0 101 101"><path d="M93.5 53H86V40.5a1.5 1.5 0 0 0-1.5-1.5H61V26.5a1.5 1.5 0 0 0-1.5-1.5h-51A1.5 1.5 0 0 0 7 26.5v47A1.5 1.5 0 0 0 8.5 75h11.42a7.65 7.65 0 0 0 15.21 0h33.55a7.66 7.66 0 0 0 15.23 0h9.59a1.5 1.5 0 0 0 1.5-1.5v-19a1.5 1.5 0 0 0-1.5-1.5Zm-66 25.84a4.66 4.66 0 1 1 4.64-4.65 4.66 4.66 0 0 1-4.6 4.65Zm0-12.31A7.67 7.67 0 0 0 20.2 72H10V28h48v44H34.86a7.66 7.66 0 0 0-7.32-5.47Zm48.79 12.31a4.66 4.66 0 1 1 4.66-4.65 4.66 4.66 0 0 1-4.66 4.65ZM92 72h-8.37A7.65 7.65 0 0 0 69 72h-8V42h22v12.5a1.5 1.5 0 0 0 1.5 1.5H92Z"/><path d="M16.5 43H47l-5 5a1.5 1.5 0 1 0 2.12 2.12l6.73-6.73a1.5 1.5 0 0 0 0-2.12l-6.73-6.73A1.5 1.5 0 0 0 42 36.7l3.3 3.3H16.5a1.5 1.5 0 0 0 0 3ZM49 57.5a1.5 1.5 0 0 0-1.5-1.5H17.1l4.9-4.89A1.5 1.5 0 1 0 19.86 49l-6.73 6.73a1.5 1.5 0 0 0 0 2.12l6.73 6.73A1.5 1.5 0 0 0 22 62.45L18.54 59h29A1.5 1.5 0 0 0 49 57.5Z"/></svg>

<?xml version="1.0" encoding="UTF-8"?> <svg xmlns="http://www.w3.org/2000/svg" id="Layer_1" data-name="Layer 1" viewBox="0 0 101 101"> <title>log_Artboard 2 copy 8</title> <path d="M93.5,53H86V40.5A1.5,1.5,0,0,0,84.5,39H61V26.5A1.5,1.5,0,0,0,59.5,25H8.5A1.5,1.5,0,0,0,7,26.5v47A1.5,1.5,0,0,0,8.5,75H19.92a7.65,7.65,0,0,0,15.21,0H68.68a7.66,7.66,0,0,0,15.23,0H93.5A1.5,1.5,0,0,0,95,73.5v-19A1.5,1.5,0,0,0,93.5,53Zm-66,25.84a4.66,4.66,0,1,1,4.64-4.65A4.66,4.66,0,0,1,27.54,78.84Zm0-12.31A7.67,7.67,0,0,0,20.2,72H10V28H58V72H34.86A7.66,7.66,0,0,0,27.54,66.53ZM76.29,78.84a4.66,4.66,0,1,1,4.66-4.65A4.66,4.66,0,0,1,76.29,78.84ZM92,72H83.63A7.65,7.65,0,0,0,69,72H61V42H83V54.5A1.5,1.5,0,0,0,84.5,56H92Z"></path> <path d="M16.5,43H47l-5,5a1.5,1.5,0,1,0,2.12,2.12l6.73-6.73a1.5,1.5,0,0,0,0-2.12l-6.73-6.73A1.5,1.5,0,0,0,42,36.7l3.3,3.3H16.5a1.5,1.5,0,0,0,0,3Z"></path> <path d="M49,57.5A1.5,1.5,0,0,0,47.5,56H17.1L22,51.11A1.5,1.5,0,1,0,19.86,49l-6.73,6.73a1.5,1.5,0,0,0,0,2.12l6.73,6.73A1.5,1.5,0,0,0,22,62.45L18.54,59h29A1.5,1.5,0,0,0,49,57.5Z"></path> </svg>
